X:1
T:Modal Bartók
T:Modal Bartók
T:Bartók Béla (1881-1945)
T:five pieces from Mikrokosmos
T:In Dorian Mode
T:(1,32)
T:In Phrygian Mode
T:(1,34)
T:In Lydian Mode
T:(2,37)
T:In Mixolydian Mode
T:(2,48)
C:Bartók Béla (1881-1945)
%%score { 1 | 2 }
L:1/8
Q:1/4=104
M:3/2
K:C
V:1 treble nm="Piano" snm="Pno."
V:2 treble 
V:1
!p!"^Lento," z2 d2 c2 B2 A4- | A2 B2 c2 G2 A4- | A2 G2 A2 B2 c2 d2 | B8- B2 c2 | A6 d2 A2 B2 | %5
 G2 A2 B2 c2 A2 z2 | z2 c2 B4 G4 | z4 A4 c2 z2 | z2 d2 A4 c2 z2 | z2 G2 A2 d2 c2 z2 | %10
 z2 G2 A2 d2 c2 B2 | A2 B2 c2 G2 A2[Q:1/4=104] d2 | %12
[Q:1/4=103]"^.7" c2[Q:1/4=102]"^.5" B2[Q:1/4=99]"^.8" A4[Q:1/4=88]"^.9" G4 |[Q:1/4=69] A12 |] %14
[M:2/2][Q:1/2=80]"^Calmo,"!p! z2 c2 B4- | B2 d2 B4- | B2 e2 B4- |!mf! B2 d2 e2 f2 | e2 B2 e4 | %19
 d4 B2 d2 | c8- | c8 |!mf! z2 B2 d2 e2 | f4 c4 | d4 z2 B2 | c2 d2 e4 | B4 c4 |!p! z2 d2 B4 | %28
 e2"_cresc." c4 d2 | B4 e2 c2- | c2 d2 B4 | c2 B2 z2 c2 |!f! B2 d2 e2 f2 | e2 B2 e4 | d4 B2 d2 | %35
 c2 B2 c4[Q:1/2=80] |[Q:1/2=79]"^.9" B8-[Q:1/2=78]"^.5" |[Q:1/2=74]"^.5" B8-[Q:1/2=67]"^.2" | %38
!p![Q:1/2=56] B8- | B8 |][M:2/4][Q:1/4=116]"^Allegretto,"!mf! z4 | z4 | z4 | z4 | F4- | F2 c2 | %46
 B2 AB | G2 F2 | A2 c2 | B2 AB | G4 | z2 !tenuto!c2 | !tenuto!c2 !tenuto!c2 | !tenuto!c2 BG | %54
 AGFG | A2 F2 | z2 c2- | c2 c2- | c2 c2 | B2 AB | G4- | G2 AB | cABG | AGAF | G4- | GFAB | cBAB | %67
 AGFG |!f! z2[Q:1/4=116] A[Q:1/4=115]"^.9"B | %69
[Q:1/4=115]"^.4" A2[Q:1/4=112]"^.7" G2[Q:1/4=110]"^.2" | %70
[Q:1/4=106]"^.8" F2[Q:1/4=97]"^.1" G[Q:1/4=90]"^.6"F |[Q:1/4=83] !fermata!z4 |] %72
[M:5/4][Q:1/4=184]"^Allegro non troppo,""_legato" z10 | z10 | z4!f! d6- | d2 B2 A2 d4- | %76
 d2 G2 A4 c2 | B2 G2 A6 | z2 d8- | d2 g2 f2 e2 c2 | z2 d2 G2 A2 d2 | B2 G2 A6 | %82
 z2!mf! B2 d2 c2 A2 | G2 B2 d2 c2 A2 | z2 G2 d2 c2 G2 | B8- B2- | B2 c2 B2 A2 G2 | B2 d4 B2 A2 | %88
 z2 G2 d2 c2 d2 | B8- B2- | B2 G2 c2 d2 B2 | A2 G2 z2 z4 | z2!f! d8- | d2 e2 f2 e2 c2 | e2 d8 | %95
 g2 f2 g2 e2 c2 | f2 e2 d4 c2 | f4 e4 d2- | d2 e2 c2 f4- | f2 e2 f2 d2 c2 | e2 d8- | d8- d2- | %102
 d8- (d2 | z10) | z10 |] %105
V:2
 D8- D2 G2 | D8- D2 C2 | D6 D2 E2 F2 | G2 D2 E2 F2 G2 E2 | G2 C2 D2 E2 F4- | F4 D2 E2 C2 F2 | %6
 D2 C2 E4 G4 | D6 C2 E2 G2 | D6 C2 E2 G2 | D6 C2 E2 G2 | D6 C2 E2 G2- | G2 F2 E2 G4 F2 | %12
 E2 C2 F4 E4 | [D^F]12 |][M:2/2][K:bass] E,6 F,2 | E,6 G,2 | E,6 A,2 | E,8- | E,2 F,2 G,2 A,2 | %19
 B,8- | B,2 A,2 G,2 A,2 | B,2 A,2 G,2 F,2 | E,4 B,4- | B,2 A,2 B,4 | F,4 G,4 | E,6 B,2 | %26
 A,2 G,2 A,4 | F,4 G,4 | E,4 F,4 | G,4 F,4 | G,4 A,4 | G,4 A,4 | B,8- | B,2!f! A,2 G,2 A,2 | B,8- | %35
 B,2!f! A,2 G,2 A,2 |"^dim." F,4 B,4 | G,4 A,4 | E,8- | E,8 |][M:2/4] F,2 C2 | B,2 A,B, | G,2 F,2 | %43
 A,2 C2 | B,2 A,B, | G,4- | G,2 C2 | B,2 A,G, | F,2 A,2 | G,4- | G,2 A,B, | G,2 C2- | C2 C2- | %53
 C2 C2- | C2 B,F, | CB,A,B, | !tenuto!C2 !tenuto!C2 | !tenuto!C2 !tenuto!C2 | %58
 !tenuto!C2 !tenuto!C2 | z2 C2 | B,2 A,B, | G, z C2- | C2 F,2 | B,4- | B,A,B,G, | A,4- | A,2 F,G, | %67
 A,2 B,2 | C4- | C2 F,G, | A,2 B,2 | !fermata!C4 |][M:5/4]!mf! G,2 B,2 D2 C2 A,2 | %73
 G,2 B,2 D2 C2 A,2 | G,2 B,2 D2 C2 A,2 | G,2 B,2 D2 C2 A,2 | G,2 B,2 D2 C2 A,2 | %77
 G,2 B,2 D2 C2 A,2 | G,2 B,2 D2 C2 A,2 | G,2 B,2 D2 C2 A,2 | G,2 B,2 D2 C2 A,2 | %81
 G,2 B,2 D2 C2 A,2 | G,4 z2 z4 |!f! F,8- F,2 | E,2 B,4 A,2 B,2 | G,2 E,2 A,2 B,2 G,2 | %86
 A,2 E,4 A,2 B,2 | G,4 E,2 G,2 A,2 | E,2 B,4 A,2 B,2 | G,2 E,2 A,2 B,2 G,2 | E,6 F,2 z2 | %91
 z2 G,2 C2 D2 A,2 | G,2 B,2 D2 C2 A,2 | G,8- G,2- | G,2 B,2 D2 C2 A,2 | G,8- G,2- | %96
 G,2 C2 D2 B,2 A,2 | z2 D4 G,4 | C4 A,2 B,2 C2 | D8- D2 | z4!mf! G,2 A,2 C2 | D2 G,2 A,4 C2 | %102
 D4 A,4 C2- | C2!p! (D8 | z10) |] %105

